X: 1
T: Fraser's Jig
O: trad., from Buddy MacMaster
N: arr. Terry Traub, 2011-6-30
M: 6/8
L: 1/8
R: Jig
K: Gdor
D \
| "Gm"GAG d3 | "Gm"dcd g3  | "F"f2c "Bb"dfd | "F"cAF AGF \
| "Gm"GAG d3 | "Gm"dcd g2a | "Bb"f2d "F"cAF | "Gm"G3- G2 :|
^f \
| "Gm"g3 de^f | "Gm"g^fg d2e | "F"f2c "Bb"dfd | "F"cAF F2^f \
| "Gm"g3 de^f | "Gm"g^fg d2e | "Bb"f2d "F"cAF | "Gm"G3- G2 |]
^f \
| "Gm"g^fg def | "Gm"g^fg d2e | "F"f2c "Bb"dfd | "F"cAF AGF \
| "Gm"GAG  dcd | "Gm"gfg  a2g | "Bb"f2d "F"cAF | "Gm"G3- G2 |]
